X:1
T:Title
%%score { 1 | 2 }
L:1/8
M:6/8
K:Db
V:1 treble nm="Grand Piano"
V:2 bass 
V:1
 z3 z2[Q:1/4=84] [DF]/[EG]/ | [FA][FA][FA] ABc | [Fd]3 [FA]2 F/G/ | [CA][CE][DF] [EG][DF][CE] | %4
[M:5/8] [DF]-[DF]- [DF]3 |[M:1/8] [FA]/[FA]/ |[M:3/4] BB B[Bd] [Ac][GB] | [FA]3 [Fd]2 [DF]/[DF]/ | %8
 [CA][CE] [DF][EG] [DF][CE] |[M:5/8] D-D- D3 |[M:1/8] [Fd]/[Fd]/ |[M:3/4] cc c c2 B | %12
 [GB][FA] [FA] [FA]2 [Fd]/[Fd]/ | cc c[=Ge] [Gd][GB] |[M:5/8] A-A- A3 |[M:1/8] A/G/ | %16
[M:3/4] FF [EG] [FA]2 [FA]/[FA]/ | [Ad][Ad] [Ac] B2 B/B/ | AA Ac Bc |[M:5/8] [Fd]-[Fd]- [Fd]3 |] %20
V:2
 z3 z2 [D,A,]/[D,A,]/ | [D,D][D,D][D,D][K:treble] [A,CG][A,DG][A,EG] | [D,D]3 [D,D]2 [D,A,D] | %3
 [A,,A,][A,,A,][A,,A,] [A,,A,][A,,A,][A,,A,] |[M:5/8] [D,A,]-[D,A,]- [D,A,]3 | %5
[M:1/8] [D,D]/[D,D]/ |[M:3/4] [G,DG][G,DG] [G,DG][G,D] [G,D][G,D] | [D,D]3 [D,A,]2 [D,A,]/[D,A,]/ | %8
 [A,,A,][A,,A,] [A,,A,][A,,A,] [A,,A,][A,,G,] |[M:5/8] [D,F,]-[D,F,]- [D,F,]3 | %10
[M:1/8] [D,D]/[D,D]/ |[M:3/4][K:treble] [A,EG][A,EG] [A,EG] [A,EG]2 [A,CG] | %12
 [D,D][D,D] [D,D] [D,D]2 [D,A,]/[D,A,]/ | [E,A,E][E,A,E] [E,A,E][E,B,] [E,B,][E,D] | %14
[M:5/8] [A,C]-[A,C]- [A,C]3 |[M:1/8] [A,CE]/[A,CE]/ | %16
[M:3/4] [D,A,D][D,A,D] [D,A,] [D,D]2 [D,D]/[D,D]/ | %17
 [F,D][F,D] [F,D][K:treble] [G,DG]2 [G,DG]/[G,DG]/ | [A,DF][A,DF] [A,DF][A,EG] [A,EG][A,EG] | %19
[M:5/8][K:bass] [D,D]-[D,D]- [D,D]3 |] %20

